X: 21503
T: THREE FARTHINGS FOR A HALFPENNY
R: reel, hornpipe
B: K\"ohler's Violin Repository, v.2, 1885 p.150 #3
F: http://www.archive.org/details/klersviolinrepos02rugg
Z: 2012 John Chambers <jc:trillian.mit.edu>
M: C|
L: 1/8
K: A
|:\
v(cd)e=g fde2 | (cd)e=g (fd)de | (cd)e=g (fd)ec |\
(B{cB}A) (=GB) gdde :| (f/g/a) ed (cd)e=g (f/g/a) (e/f/g) aAA=g |
(f/g/a) ed (cd)ec | (B{cB}A) (=GB) gdde | c>A A/A/A A2fd |\
c>A A/A/A (=GB)dB | c>A A/A/A A2ec | (B{cB}A) =GB gdde "D.C."|]

%%sep 2 1 500

